X: 25940
T: Maurice O'Connor
R: jig
M: 6/8
K: Dmajor
V:1
|:d2A def|ed/c/B/A/ d2A|Bc/d/B AFD|GEE G2A|
V:2
|:f3 d3|c2A d3|BdB Adf|g3 e3|
V:1
FEF DFd|c2d efg|af/g/a/f/ ge/f/g/e/|c3 A3:|
V:2
d3 f3|e3 g3|afd gec|A3 c3:|
V:1
|:dDd dFd|c2B A2G|FAf FAf|g2f e2A|
V:2
|:DAF DdF|E2D c2B|ADF ADF|G3 A3|
V:1
af/g/a/f/ geg/e/|df/g/a/f/ ecA|Bgf ed/c/B/A/|d3 d3:|
V:2
f2d e2g|f2d A3|B2d c2e|f3 f3:|

